X:1121
T:Banish Misfortune
M:6/8
L:1/8
K:D Mixolydian
e|f2d cAG|Add cAG|F2D DED|FEF GFG|!
A3 cAG|AGA cde|fed cAG|Add d2:|!
e|f2d d^cd|f2a agf|e2c cBc|e2f gfe|!
f2g agf|e2f gfe|fed cAG|Add d2:|!
e|f3 e3|d3 c3|A3 G3|F3 FED|!
c3 cAG|AGA cde|fed cAG|Add d2:|!


